X:1
T:NAVY
M:C
L:1/8
Q:80
C:ARR. J.KEELY
S:MARCH
K:HP
e2 | \
A4{GdG}c2{f}e2 | \
{g}f3c{g}f4 | \
a4B2{g}e2 |
a4{g}a4 | \
{fg}f4a2f2 | \
{gef}e2f2g2a2 |
c2e2B2a2 | \
g2e2d2B2 | \
{g}A4{GdG}c2{f}e2 |
{g}f3c{g}f4 | \
a4B2{g}e2 | \
a4{g}a4 |
{fg}f4a2f2 | \
{gef}e2f2g2a2 | \
{g}a3/2e/2ce{ag}a3/2e/2ce |
{ag}a4|]
